;Sliced by ideaMaker 4.3.2.6470, 2023-04-20 16:40:07 UTC-0500
;Dimension: 250.000 200.000 200.000 0.400
;Plate Shape: 0
;Origin Center: 0
;Extruder Offset #1: 25.000 0.000
;Filament Diameter #1: 1.750
;Filament Diameter #2: 1.750
;Filament Compensation #1: 100.00
;Filament Compensation #2: 90.00
;Filament Density #1: 1240.00
;Filament Density #2: 1240.00
;Filament Type #1: PETG
;Filament Type #2: 
;Filament Name #1: [CraftBot] PETG 1.75mm-copy
;Filament Name #2: 
;Firmware: Marlin
;Bounding Box: 49.113 173.328 67.100 164.801 0.000 11.050
;Model Gap: 0.000

M140 S75 ;start heating bed
M109 S250 ;start heating T0
M4002 P1 ; set heat program 1
M1203 A88 D66 F1200; set higher accel and decel
G28 X0 Y0 ; home XY
G28 Z0 ; home Z
G91 ; set relative movements
G0 F100 ; speed 100mm/sec
G0 E5 ; extrude 5mm of filament
G90 ;absolute movements
G0 X8 ; account for Craftbot offset
; -- START GCODE --
M140 S75 ;start heating bed
M109 S250 ;start heating T0
M4002 P1 ;set heat program 1
M1203 A88 D66 F1200 ;set higher accel and decel
G28 X0 Y0 ;home XY
G28 Z0 ;home Z
G91 ;set relative movements
G0 F100 ;speed 100mm/sec
G0 E20 ;extrude 20mm of filament
G90 ;absolute movements
G0 X8 ;account for Craftbot offset
G92 X0 Y0 ;set new X and Y
; -- end of START GCODE --
;end of Start GCode
;TOTAL_NUM: 5
;PRINTING_TIME: 0
;REMAINING_TIME: 4349
;LAYER:0
;Z:0.300
;HEIGHT:0.300
M106 S0
;PRINTING: NON-OBJECT
;PRINTING_ID: -1
G1 F1500 E-1.0000
G0 F6000 X60.518 Y77.080
G0 F300 Z0.300
;TYPE:SKIRT
;WIDTH:0.560
G1 F1500 E0.0000
G1 F1500 X60.980 Y76.779 E0.0385
G1 X62.136 Y76.112 E0.1317
G1 X62.730 Y75.819 E0.1780
G1 X63.415 Y75.580 E0.2287
G1 X63.990 Y75.457 E0.2697
G1 X64.641 Y75.394 E0.3154
G1 X64.815 Y75.235 E0.3319
G1 X65.229 Y74.916 E0.3684
G1 X65.914 Y74.512 E0.4239
G1 X66.393 Y74.302 E0.4605
G1 X66.890 Y74.140 E0.4970
G1 X68.275 Y73.770 E0.5971
G1 X68.926 Y73.647 E0.6434
G1 X69.583 Y73.606 E0.6894
G1 X70.236 Y73.643 E0.7350
G1 X70.808 Y73.741 E0.7756
G1 X71.505 Y73.432 E0.8288
G1 X72.205 Y73.233 E0.8797
G1 X72.788 Y73.140 E0.9209
G1 X73.334 Y73.111 E0.9591
G1 X74.740 Y73.113 E1.0573
G1 X75.398 Y73.162 E1.1034
G1 X76.047 Y73.291 E1.1496
G1 X76.667 Y73.496 E1.1952
G1 X77.196 Y73.741 E1.2359
G1 X77.429 Y73.693 E1.2525
G1 X78.013 Y73.619 E1.2937
G1 X78.672 Y73.612 E1.3397
G1 X79.320 Y73.683 E1.3852
G1 X79.798 Y73.787 E1.4194
G1 X81.119 Y74.142 E1.5149
G1 X81.780 Y74.371 E1.5638
G1 X82.367 Y74.661 E1.6095
G1 X82.808 Y74.942 E1.6460
G1 X83.365 Y75.394 E1.6961
G1 X83.612 Y75.409 E1.7134
G1 X84.196 Y75.490 E1.7546
G1 X84.900 Y75.676 E1.8055
G1 X85.493 Y75.916 E1.8501
G1 X85.868 Y76.113 E1.8797
G1 X87.083 Y76.817 E1.9778
G1 X87.576 Y77.148 E2.0193
G1 X88.123 Y77.620 E2.0697
G1 X88.477 Y78.006 E2.1063
G1 X88.898 Y78.591 E2.1567
G1 X89.127 Y78.664 E2.1735
G1 X89.671 Y78.894 E2.2147
G1 X90.303 Y79.255 E2.2655
G1 X90.812 Y79.639 E2.3101
G1 X91.127 Y79.928 E2.3399
G1 X92.094 Y80.895 E2.4355
G1 X92.102 Y72.428 E3.0268
G1 X92.151 Y71.770 E3.0729
G1 X92.263 Y71.188 E3.1143
G1 X92.462 Y70.560 E3.1603
G1 X92.702 Y70.025 E3.2013
G1 X93.081 Y69.401 E3.2523
G1 X93.539 Y68.833 E3.3033
G1 X94.017 Y68.375 E3.3495
G1 X94.542 Y67.983 E3.3953
G1 X94.993 Y67.718 E3.4318
G1 X95.592 Y67.450 E3.4776
G1 X96.361 Y67.222 E3.5337
G1 X96.877 Y67.137 E3.5702
G1 X97.500 Y67.100 E3.6138
G1 X164.534 Y67.101 E8.2958
G1 X165.226 Y67.150 E8.3443
G1 X165.741 Y67.245 E8.3809
G1 X166.503 Y67.487 E8.4367
G1 X167.040 Y67.737 E8.4781
G1 X167.543 Y68.042 E8.5192
G1 X168.167 Y68.539 E8.5749
G1 X168.623 Y69.013 E8.6208
G1 X168.941 Y69.428 E8.6574
G1 X169.344 Y70.115 E8.7130
G1 X169.574 Y70.656 E8.7540
G1 X169.745 Y71.223 E8.7954
G1 X169.875 Y72.001 E8.8505
G1 X169.900 Y72.500 E8.8854
G1 X169.899 Y123.537 E12.4501
G1 X169.849 Y124.230 E12.4987
G1 X169.720 Y124.879 E12.5449
G1 X169.515 Y125.499 E12.5905
G1 X169.298 Y125.975 E12.6270
G1 X168.960 Y126.540 E12.6730
G1 X168.509 Y127.114 E12.7240
G1 X168.036 Y127.580 E12.7704
G1 X167.458 Y128.017 E12.8210
G1 X166.949 Y128.311 E12.8621
G1 X166.340 Y128.575 E12.9084
G1 X165.639 Y128.778 E12.9594
G1 X165.064 Y128.869 E13.0001
G1 X164.500 Y128.900 E13.0395
G1 X146.542 Y128.900 E14.2938
G1 X146.762 Y129.269 E14.3238
G1 X147.157 Y129.573 E14.3586
G1 X147.580 Y129.977 E14.3995
G1 X148.245 Y130.784 E14.4725
G1 X148.640 Y131.341 E14.5202
G1 X148.949 Y131.843 E14.5614
G1 X149.232 Y132.453 E14.6084
G1 X149.358 Y132.849 E14.6374
G1 X149.745 Y133.297 E14.6787
G1 X149.866 Y133.472 E14.6936
G1 X150.289 Y133.062 E14.7347
G1 X150.793 Y132.662 E14.7797
G1 X151.420 Y132.282 E14.8309
G1 X151.967 Y132.037 E14.8728
G1 X152.277 Y131.939 E14.8955
G1 X152.814 Y131.439 E14.9467
G1 X153.293 Y131.091 E14.9881
G1 X153.915 Y130.745 E15.0378
G1 X154.344 Y130.565 E15.0703
G1 X155.172 Y130.265 E15.1318
G1 X155.840 Y130.076 E15.1803
G1 X156.489 Y129.975 E15.2261
G1 X157.012 Y129.953 E15.2627
G1 X157.617 Y129.997 E15.3051
G1 X158.301 Y129.757 E15.3557
G1 X158.880 Y129.636 E15.3970
G1 X159.590 Y129.575 E15.4468
G1 X160.068 Y129.586 E15.4802
G1 X160.916 Y129.647 E15.5396
G1 X161.604 Y129.746 E15.5881
G1 X162.236 Y129.918 E15.6339
G1 X162.786 Y130.139 E15.6753
G1 X163.259 Y130.397 E15.7129
G1 X163.981 Y130.456 E15.7635
G1 X164.622 Y130.599 E15.8094
G1 X165.232 Y130.813 E15.8545
G1 X165.666 Y131.019 E15.8881
G1 X166.414 Y131.418 E15.9473
G1 X167.004 Y131.789 E15.9960
G1 X167.465 Y132.161 E16.0373
G1 X167.879 Y132.578 E16.0784
G1 X168.250 Y133.056 E16.1207
G1 X168.889 Y133.404 E16.1715
G1 X169.416 Y133.794 E16.2173
G1 X169.800 Y134.150 E16.2538
G1 X170.201 Y134.607 E16.2963
G1 X170.701 Y135.248 E16.3531
G1 X171.109 Y135.854 E16.4041
G1 X171.404 Y136.441 E16.4500
G1 X171.606 Y136.995 E16.4912
G1 X171.732 Y137.522 E16.5290
G1 X172.173 Y138.098 E16.5797
G1 X172.496 Y138.672 E16.6257
G1 X172.743 Y139.267 E16.6707
G1 X172.878 Y139.719 E16.7037
G1 X173.083 Y140.542 E16.7629
G1 X173.202 Y141.230 E16.8117
G1 X173.234 Y141.884 E16.8574
G1 X173.202 Y142.406 E16.8939
G1 X173.090 Y143.014 E16.9371
G1 X173.221 Y143.477 E16.9707
G1 X173.306 Y144.062 E17.0120
G1 X173.328 Y144.649 E17.0530
G1 X173.246 Y145.492 E17.1122
G1 X173.092 Y146.359 E17.1737
G1 X172.950 Y146.931 E17.2149
G1 X172.745 Y147.486 E17.2562
G1 X172.450 Y148.073 E17.3021
G1 X172.104 Y148.579 E17.3449
G1 X172.049 Y148.956 E17.3715
G1 X171.919 Y149.462 E17.4080
G1 X171.635 Y150.192 E17.4627
G1 X171.410 Y150.617 E17.4963
G1 X171.045 Y151.206 E17.5447
G1 X170.688 Y151.711 E17.5879
G1 X170.275 Y152.219 E17.6336
G1 X169.853 Y152.629 E17.6747
G1 X169.386 Y152.993 E17.7161
G1 X168.957 Y153.255 E17.7512
G1 X168.537 Y153.851 E17.8021
G1 X168.140 Y154.291 E17.8435
G1 X167.700 Y154.682 E17.8846
G1 X167.200 Y155.038 E17.9275
G1 X166.482 Y155.485 E17.9865
G1 X165.994 Y155.752 E18.0254
G1 X165.250 Y156.044 E18.0812
G1 X164.743 Y156.175 E18.1178
G1 X164.156 Y156.255 E18.1592
G1 X163.508 Y156.643 E18.2119
G1 X162.969 Y156.879 E18.2530
G1 X162.405 Y157.055 E18.2943
G1 X161.835 Y157.169 E18.3349
G1 X160.995 Y157.287 E18.3941
G1 X160.369 Y157.334 E18.4380
G1 X159.716 Y157.306 E18.4836
G1 X159.132 Y157.212 E18.5250
G1 X158.555 Y157.046 E18.5669
G1 X157.819 Y157.134 E18.6187
G1 X157.162 Y157.128 E18.6646
G1 X156.643 Y157.065 E18.7011
G1 X156.086 Y156.942 E18.7409
G1 X155.244 Y156.700 E18.8021
G1 X154.718 Y156.515 E18.8410
G1 X154.005 Y156.160 E18.8967
G1 X153.514 Y155.830 E18.9380
G1 X153.103 Y155.478 E18.9758
G1 X152.410 Y155.272 E19.0263
G1 X151.811 Y154.998 E19.0723
G1 X151.309 Y154.695 E19.1133
G1 X150.873 Y154.366 E19.1514
G1 X150.224 Y153.819 E19.2107
G1 X149.849 Y153.459 E19.2470
G1 X149.684 Y153.692 E19.2669
G1 X149.356 Y154.066 E19.3017
G1 X149.150 Y154.630 E19.3436
G1 X148.732 Y155.415 E19.4057
G1 X148.392 Y155.922 E19.4484
G1 X147.993 Y156.460 E19.4952
G1 X147.591 Y156.935 E19.5386
G1 X147.161 Y157.342 E19.5800
G1 X146.757 Y157.636 E19.6149
G1 X146.451 Y158.133 E19.6556
G1 X146.054 Y158.631 E19.7001
G1 X145.780 Y158.914 E19.7276
G1 X145.130 Y159.526 E19.7900
G1 X144.844 Y159.770 E19.8163
G1 X144.320 Y160.161 E19.8619
G1 X143.869 Y160.426 E19.8985
G1 X143.440 Y160.615 E19.9312
G1 X143.037 Y161.044 E19.9723
G1 X142.332 Y161.594 E20.0348
G1 X141.792 Y161.933 E20.0793
G1 X141.261 Y162.233 E20.1219
G1 X140.732 Y162.492 E20.1630
G1 X140.114 Y162.714 E20.2089
G1 X139.632 Y162.819 E20.2434
G1 X139.430 Y162.972 E20.2611
G1 X138.914 Y163.285 E20.3032
G1 X138.050 Y163.656 E20.3689
G1 X137.124 Y163.957 E20.4369
G1 X136.618 Y164.089 E20.4734
G1 X135.896 Y164.189 E20.5243
G1 X135.393 Y164.197 E20.5595
G1 X134.846 Y164.419 E20.6007
G1 X134.091 Y164.612 E20.6551
G1 X133.372 Y164.721 E20.7059
G1 X132.662 Y164.788 E20.7557
G1 X132.009 Y164.801 E20.8014
G1 X131.488 Y164.755 E20.8379
G1 X131.007 Y164.653 E20.8722
G1 X130.450 Y164.758 E20.9118
G1 X129.928 Y164.796 E20.9484
G1 X129.503 Y164.790 E20.9781
G1 X128.901 Y164.750 E21.0202
G1 X128.233 Y164.673 E21.0672
G1 X127.617 Y164.562 E21.1109
G1 X127.051 Y164.394 E21.1521
G1 X126.597 Y164.191 E21.1869
G1 X126.017 Y164.175 E21.2274
G1 X125.382 Y164.080 E21.2722
G1 X124.755 Y163.920 E21.3174
G1 X123.922 Y163.649 E21.3786
G1 X123.235 Y163.363 E21.4306
G1 X122.713 Y163.067 E21.4725
G1 X122.392 Y162.831 E21.5003
G1 X122.170 Y162.790 E21.5161
G1 X121.602 Y162.624 E21.5574
G1 X120.967 Y162.354 E21.6056
G1 X119.881 Y161.737 E21.6929
G1 X119.359 Y161.387 E21.7368
G1 X118.909 Y161.008 E21.7779
G1 X118.532 Y160.607 E21.8163
G1 X118.022 Y160.358 E21.8559
G1 X117.480 Y160.013 E21.9008
G1 X116.999 Y159.634 E21.9436
G1 X116.291 Y158.996 E22.0102
G1 X115.810 Y158.487 E22.0591
G1 X115.496 Y158.069 E22.0956
G1 X115.251 Y157.645 E22.1298
G1 X114.851 Y157.342 E22.1648
G1 X114.422 Y156.934 E22.2062
G1 X113.687 Y156.027 E22.2877
G1 X113.335 Y155.530 E22.3303
G1 X113.061 Y155.084 E22.3668
G1 X112.919 Y154.787 E22.3898
G1 X112.582 Y155.213 E22.4278
G1 X112.164 Y155.631 E22.4690
G1 X111.586 Y156.082 E22.5203
G1 X111.079 Y156.386 E22.5615
G1 X110.867 Y156.486 E22.5779
G1 X110.793 Y156.684 E22.5927
G1 X110.492 Y157.273 E22.6389
G1 X110.124 Y157.818 E22.6848
G1 X109.685 Y158.324 E22.7316
G1 X109.171 Y158.786 E22.7799
G1 X108.672 Y159.172 E22.8239
G1 X107.942 Y159.694 E22.8866
G1 X107.347 Y160.058 E22.9353
G1 X106.748 Y160.329 E22.9813
G1 X106.115 Y160.527 E23.0276
G1 X105.535 Y160.636 E23.0688
G1 X105.217 Y160.663 E23.0911
G1 X105.079 Y160.817 E23.1055
G1 X104.587 Y161.258 E23.1517
G1 X104.043 Y161.637 E23.1980
G1 X103.447 Y161.949 E23.2450
G1 X102.742 Y162.212 E23.2975
G1 X101.911 Y162.453 E23.3580
G1 X101.215 Y162.623 E23.4080
G1 X100.563 Y162.730 E23.4542
G1 X99.906 Y162.758 E23.5001
G1 X99.384 Y162.722 E23.5366
G1 X98.740 Y162.606 E23.5823
G1 X98.446 Y162.512 E23.6039
G1 X98.254 Y162.610 E23.6190
G1 X97.702 Y162.822 E23.6603
G1 X96.993 Y163.000 E23.7113
G1 X96.320 Y163.077 E23.7586
G1 X95.564 Y163.066 E23.8114
G1 X94.655 Y162.985 E23.8752
G1 X94.039 Y162.906 E23.9186
G1 X93.488 Y162.798 E23.9578
G1 X92.794 Y162.577 E24.0087
G1 X92.133 Y162.260 E24.0599
G1 X91.625 Y161.935 E24.1020
G1 X91.452 Y161.795 E24.1175
G1 X91.237 Y161.817 E24.1326
G1 X90.578 Y161.811 E24.1786
G1 X89.992 Y161.737 E24.2199
G1 X89.420 Y161.601 E24.2610
G1 X88.577 Y161.274 E24.3241
G1 X87.828 Y160.906 E24.3824
G1 X87.190 Y160.559 E24.4331
G1 X86.746 Y160.281 E24.4697
G1 X86.230 Y159.872 E24.5157
G1 X85.768 Y159.403 E24.5617
G1 X85.365 Y158.882 E24.6077
G1 X85.193 Y158.597 E24.6310
G1 X84.839 Y158.491 E24.6568
G1 X84.233 Y158.229 E24.7029
G1 X83.664 Y157.895 E24.7490
G1 X83.140 Y157.495 E24.7950
G1 X82.704 Y157.075 E24.8373
G1 X82.104 Y156.422 E24.8992
G1 X81.650 Y155.886 E24.9483
G1 X81.301 Y155.407 E24.9897
G1 X80.978 Y154.832 E25.0358
G1 X80.726 Y154.225 E25.0817
G1 X80.565 Y153.659 E25.1228
G1 X80.515 Y153.357 E25.1441
G1 X80.339 Y153.229 E25.1593
G1 X79.856 Y152.779 E25.2054
G1 X79.434 Y152.278 E25.2512
G1 X79.143 Y151.844 E25.2877
G1 X78.742 Y151.035 E25.3508
G1 X78.419 Y150.212 E25.4125
G1 X78.194 Y149.564 E25.4604
G1 X78.055 Y149.060 E25.4969
G1 X77.944 Y148.340 E25.5478
G1 X77.925 Y147.749 E25.5891
G1 X77.981 Y147.095 E25.6350
G1 X78.044 Y146.780 E25.6574
G1 X77.864 Y146.484 E25.6816
G1 X77.641 Y146.011 E25.7181
G1 X77.392 Y145.251 E25.7740
G1 X77.271 Y144.601 E25.8202
G1 X77.230 Y143.979 E25.8637
G1 X77.225 Y143.124 E25.9234
G1 X77.246 Y142.477 E25.9686
G1 X77.305 Y141.879 E26.0106
G1 X77.442 Y141.238 E26.0564
G1 X77.712 Y140.484 E26.1123
G1 X77.948 Y140.017 E26.1489
G1 X78.118 Y139.763 E26.1702
G1 X78.054 Y139.399 E26.1960
G1 X78.018 Y138.811 E26.2372
G1 X78.053 Y138.152 E26.2833
G1 X78.153 Y137.569 E26.3246
G1 X78.344 Y136.915 E26.3722
G1 X78.568 Y136.314 E26.4170
G1 X78.900 Y135.517 E26.4773
G1 X79.192 Y134.927 E26.5233
G1 X79.596 Y134.316 E26.5744
G1 X79.981 Y133.866 E26.6158
G1 X80.465 Y133.418 E26.6619
G1 X80.722 Y133.229 E26.6841
G1 X80.759 Y133.018 E26.6991
G1 X80.945 Y132.384 E26.7453
G1 X81.205 Y131.783 E26.7910
G1 X81.464 Y131.328 E26.8276
G1 X82.007 Y130.611 E26.8904
G1 X82.581 Y129.975 E26.9502
G1 X83.087 Y129.460 E27.0006
G1 X83.527 Y129.071 E27.0417
G1 X84.069 Y128.693 E27.0878
G1 X84.652 Y128.384 E27.1339
G1 X85.204 Y128.170 E27.1753
G1 X85.506 Y128.089 E27.1971
G1 X85.616 Y127.907 E27.2120
G1 X85.930 Y127.488 E27.2485
G1 X86.484 Y126.911 E27.3044
G1 X87.014 Y126.494 E27.3515
G1 X87.656 Y126.108 E27.4038
G1 X88.417 Y125.724 E27.4634
G1 X88.992 Y125.460 E27.5075
G1 X89.611 Y125.227 E27.5537
G1 X90.256 Y125.066 E27.6002
G1 X90.913 Y124.988 E27.6464
G1 X91.576 Y124.990 E27.6927
G1 X91.830 Y125.018 E27.7105
G1 X91.993 Y124.892 E27.7249
G1 X92.246 Y124.734 E27.7458
G1 X92.137 Y124.123 E27.7891
G1 X92.100 Y123.500 E27.8327
G1 X92.100 Y115.098 E28.4196
G1 X91.077 Y116.120 E28.5206
G1 X90.634 Y116.506 E28.5616
G1 X90.090 Y116.879 E28.6077
G1 X89.568 Y117.156 E28.6489
G1 X88.893 Y117.413 E28.6994
G1 X88.765 Y117.612 E28.7159
G1 X88.402 Y118.080 E28.7573
G1 X87.887 Y118.599 E28.8084
G1 X87.430 Y118.959 E28.8490
G1 X87.023 Y119.220 E28.8828
G1 X85.838 Y119.903 E28.9783
G1 X85.273 Y120.182 E29.0223
G1 X84.585 Y120.420 E29.0732
G1 X84.007 Y120.543 E29.1144
G1 X83.356 Y120.605 E29.1601
G1 X83.188 Y120.765 E29.1763
G1 X82.774 Y121.084 E29.2128
G1 X82.152 Y121.455 E29.2634
G1 X81.614 Y121.696 E29.3046
G1 X81.113 Y121.860 E29.3414
G1 X79.764 Y122.221 E29.4389
G1 X79.077 Y122.353 E29.4878
G1 X78.487 Y122.394 E29.5291
G1 X77.838 Y122.365 E29.5745
G1 X77.193 Y122.259 E29.6201
G1 X76.977 Y122.368 E29.6370
G1 X76.429 Y122.592 E29.6784
G1 X75.793 Y122.769 E29.7245
G1 X75.151 Y122.865 E29.7698
G1 X74.668 Y122.889 E29.8036
G1 X73.262 Y122.887 E29.9018
G1 X72.604 Y122.838 E29.9479
G1 X71.959 Y122.710 E29.9938
G1 X71.461 Y122.552 E30.0303
G1 X70.806 Y122.259 E30.0804
G1 X70.576 Y122.306 E30.0968
G1 X69.921 Y122.386 E30.1429
G1 X69.265 Y122.386 E30.1887
G1 X68.745 Y122.328 E30.2253
G1 X68.205 Y122.213 E30.2639
G1 X66.885 Y121.859 E30.3593
G1 X66.357 Y121.684 E30.3982
G1 X65.698 Y121.374 E30.4490
G1 X65.143 Y121.021 E30.4950
G1 X64.639 Y120.607 E30.5405
G1 X63.824 Y120.513 E30.5978
G1 X63.119 Y120.330 E30.6487
G1 X62.632 Y120.140 E30.6852
G1 X62.136 Y119.888 E30.7241
G1 X60.980 Y119.221 E30.8173
G1 X60.429 Y118.855 E30.8635
G1 X59.877 Y118.377 E30.9145
G1 X59.440 Y117.887 E30.9604
G1 X59.105 Y117.411 E31.0010
G1 X58.880 Y117.336 E31.0176
G1 X58.275 Y117.078 E31.0635
G1 X57.761 Y116.785 E31.1048
G1 X57.236 Y116.399 E31.1503
G1 X56.876 Y116.072 E31.1843
G1 X55.907 Y115.102 E31.2801
G1 X55.451 Y114.576 E31.3287
G1 X55.087 Y114.032 E31.3744
G1 X54.845 Y113.568 E31.4110
G1 X54.586 Y112.884 E31.4621
G1 X54.386 Y112.761 E31.4785
G1 X53.866 Y112.353 E31.5246
G1 X53.404 Y111.888 E31.5704
G1 X53.078 Y111.479 E31.6069
G1 X52.781 Y111.022 E31.6450
G1 X52.114 Y109.867 E31.7382
G1 X51.849 Y109.340 E31.7794
G1 X51.582 Y108.588 E31.8351
G1 X51.459 Y108.013 E31.8762
G1 X51.396 Y107.354 E31.9224
G1 X51.236 Y107.186 E31.9386
G1 X50.917 Y106.772 E31.9751
G1 X50.512 Y106.084 E32.0309
G1 X50.261 Y105.494 E32.0757
G1 X50.133 Y105.085 E32.1056
G1 X49.788 Y103.797 E32.1987
G1 X49.649 Y103.079 E32.2498
G1 X49.607 Y102.488 E32.2912
G1 X49.637 Y101.831 E32.3371
G1 X49.745 Y101.183 E32.3830
G1 X49.635 Y100.979 E32.3992
G1 X49.434 Y100.496 E32.4357
G1 X49.250 Y99.866 E32.4816
